src/shared/assets/feed/icon/like 1.svg

<svg width="16" height="16" viewBox="0 0 16 16" fill="none" xmlns="http://www.w3.org/2000/svg">
<g clip-path="url(#clip0_681_5593)">
<path d="M8.24655 1.94274C9.03273 1.15038 10.0436 0.666748 11.2727 0.666748C13.9185 0.666748 16 2.84729 16 5.9159C16 7.75654 15.1018 9.28699 13.4429 10.9381C13.0858 11.2937 11.9945 12.3013 11.9455 12.349C11.7909 12.4971 11.6244 12.6508 11.4462 12.8092C11.215 13.0144 10.9803 13.2157 10.7422 13.4127C10.2331 13.8344 9.68946 14.2589 9.14618 14.6659C8.90543 14.8464 8.66287 15.0243 8.41855 15.1998C8.29601 15.2868 8.14983 15.3334 8 15.3334C7.85017 15.3334 7.70399 15.2868 7.58146 15.1998C7.33701 15.0245 7.09433 14.8466 6.85345 14.6663C6.31159 14.2615 5.77956 13.8435 5.25782 13.4127C5.01969 13.2157 4.78499 13.0144 4.55382 12.8092C4.37564 12.6508 4.20909 12.4971 4.05455 12.349C4.00545 12.3013 2.91418 11.2934 2.55709 10.9381C0.898545 9.28699 0 7.75691 0 5.9159C0 2.84693 2.08145 0.666748 4.72727 0.666748C5.95636 0.666748 6.96727 1.15001 7.75346 1.94274C7.84182 2.03183 7.924 2.12093 8 2.20893C8.07636 2.12093 8.15818 2.03183 8.24655 1.9431V1.94274ZM8.27891 13.489C8.80162 13.0985 9.31486 12.6953 9.81818 12.2797C10.0433 12.0936 10.2651 11.9035 10.4836 11.7095C10.6484 11.5629 10.8015 11.4217 10.9418 11.2871C11.0098 11.2219 12.0873 10.2264 12.4211 9.89456C13.8287 8.4928 14.5455 7.27255 14.5455 5.9159C14.5455 3.64515 13.1025 2.1334 11.2727 2.1334C10.4585 2.1334 9.80436 2.44616 9.27491 2.98003C9.0945 3.16231 8.93474 3.36423 8.79855 3.58209C8.74899 3.65892 8.70418 3.73876 8.66436 3.82115C8.408 4.40121 7.59164 4.40121 7.33564 3.82115C7.29594 3.73877 7.25125 3.65893 7.20182 3.58209C7.06552 3.36421 6.90563 3.16229 6.72509 2.98003C6.19564 2.44616 5.54145 2.1334 4.72727 2.1334C2.89745 2.1334 1.45455 3.64515 1.45455 5.9159C1.45455 7.27255 2.17091 8.4928 3.57891 9.89419C3.91236 10.2264 4.99018 11.2219 5.05818 11.2871C5.19855 11.4217 5.35164 11.5629 5.51636 11.7095C5.72218 11.8929 5.94473 12.0835 6.18182 12.2797C6.77439 12.7692 7.38069 13.2415 8 13.6961C8.08873 13.6305 8.18182 13.5616 8.27891 13.489Z" fill="black"/>
</g>
<defs>
<clipPath id="clip0_681_5593">
<rect width="16" height="16" fill="white"/>
</clipPath>
</defs>
</svg>

<svg xmlns="http://www.w3.org/2000/svg" fill="none" viewBox="0 0 16 16"><g clip-path="url(#a)"><path fill="#000" d="M8.247 1.943C9.033 1.15 10.044.667 11.273.667 13.919.667 16 2.847 16 5.916c0 1.84-.898 3.371-2.557 5.022-.357.356-1.448 1.363-1.498 1.411a18 18 0 0 1-.499.46q-.347.308-.704.604A42 42 0 0 1 8.42 15.2a.72.72 0 0 1-.838 0 44 44 0 0 1-2.323-1.787 27 27 0 0 1-.704-.604 18 18 0 0 1-.5-.46c-.049-.048-1.14-1.056-1.497-1.41C.9 9.286 0 7.756 0 5.915 0 2.846 2.081.666 4.727.666c1.23 0 2.24.484 3.026 1.277q.133.134.247.266.114-.132.247-.266m.032 11.546q.784-.586 1.54-1.21.336-.278.665-.57.247-.22.458-.422c.068-.065 1.145-1.06 1.48-1.392 1.407-1.402 2.124-2.622 2.124-3.98 0-2.27-1.444-3.782-3.273-3.782-.814 0-1.469.313-1.998.847a3.5 3.5 0 0 0-.61.841.725.725 0 0 1-1.33 0 2 2 0 0 0-.133-.239 3.5 3.5 0 0 0-.477-.602c-.53-.534-1.184-.847-1.998-.847-1.83 0-3.272 1.512-3.272 3.783 0 1.357.716 2.577 2.124 3.978.333.332 1.411 1.328 1.48 1.393q.21.203.457.422.31.277.666.57.889.736 1.818 1.417z"/></g><defs><clipPath id="a"><path fill="#fff" d="M0 0h16v16H0z"/></clipPath></defs></svg>
